!!!COM: Palestrina, Giovanni Perluigi da
!!!OPR: Missa Repleatur os meum laude
!!!OMD: Sanctus
!!!OTL: First Section
**kern	**kern	**kern	**kern	**kern
*Ibass	*Itenor	*Icalto	*Icalto	*Icant
!Bassus	!Tenor	!Altus 2	!Altus 1	!Cantus
*clefF4	*clefGv2	*clefG2	*clefG2	*clefG2
*k[]	*k[]	*k[]	*k[]	*k[]
*E:phr	*E:phr	*E:phr	*E:phr	*E:phr
*M4/2	*M4/2	*M4/2	*M4/2	*M4/2
=1	=1	=1	=1	=1
0r	0r	0r	0r	1e
.	.	.	.	1g
=2	=2	=2	=2	=2
0r	0r	0r	1r	1f
.	.	.	1A	[1e
=3	=3	=3	=3	=3
0r	0r	0r	1c	2e]
.	.	.	.	2a
.	.	.	1B	2b
.	.	.	.	2g
=4	=4	=4	=4	=4
0r	0r	0r	1A	2.cc
.	.	.	.	4b
.	.	.	1d	2a
.	.	.	.	4g
.	.	.	.	4f
=5	=5	=5	=5	=5
0r	0r	0r	2e	2g
.	.	.	2c	2a
.	.	.	2.f	4d
.	.	.	.	4e
.	.	.	.	4f
.	.	.	4e	4g
=6	=6	=6	=6	=6
0r	0r	0r	2d	2.a
.	.	.	4c	.
.	.	.	4B	4g
.	.	.	2c	2e
.	.	.	2d	2f
=7	=7	=7	=7	=7
1E	0r	0r	2B	2.g
.	.	.	1e	.
.	.	.	.	4a
1G	.	.	.	4b
.	.	.	.	4cc
.	.	.	4d	[2b
.	.	.	4c	.
=8	=8	=8	=8	=8
1F	0r	0r	4d	4b]
.	.	.	4c	4a
.	.	.	4c	1a
.	.	.	8B	.
.	.	.	8A	.
1E	.	.	1B	.
.	.	.	.	2g
=9	=9	=9	=9	=9
1AA	1E	0r	1e	1cc
2BB	1G	.	1d	1b
2GG	.	.	.	.
=10	=10	=10	=10	=10
1D	1F	1r	2r	2.a
.	.	.	2d	.
.	.	.	.	4b
2C	[1E	1G	2e	2cc
2E	.	.	[2g	[2b
=11	=11	=11	=11	=11
1G	1E]	1B	4g]	2b]
.	.	.	4f	.
.	.	.	1e	2g
1F	2r	1A	.	1a
.	2A	.	2d	.
=12	=12	=12	=12	=12
1E	2B	0G	0e	1r
.	2G	.	.	.
2.C	1c	.	.	2r
.	.	.	.	[2g
4D	.	.	.	.
=13	=13	=13	=13	=13
2E	2B	2r	0r	2g]
2F	1A	2c	.	1a
1D	.	2d	.	.
.	4G	2B	.	2b
.	4F	.	.	.
=14	=14	=14	=14	=14
1C	2G	1e	2.c	2cc
.	2A	.	.	2e
.	.	.	4B	.
1r	2D	2d	2A	2f
.	2E	[2c	2G	2g
=15	=15	=15	=15	=15
1r	1F	2c]	2c	1a
.	.	4B	2d	.
.	.	4A	.	.
2r	1E	2B	1e	1g
2C	.	2c	.	.
=16	=16	=16	=16	=16
2D	0r	2F	2d	2f
2E	.	2G	1c	2.e
1F	.	1A	.	.
.	.	.	.	8d
.	.	.	.	8c
.	.	.	4B	2d
.	.	.	4A	.
=17	=17	=17	=17	=17
1E	2r	1G	2B	1e
.	2E	.	1c	.
1r	2F	1r	.	1d
.	2G	.	2B	.
=18	=18	=18	=18	=18
0r	1A	1r	2c	2c
.	.	.	2c	1cc
.	1G	2r	2d	.
.	.	2G	2e	2b
=19	=19	=19	=19	=19
1D	0r	2A	1f	2a
.	.	2B	.	2d
2E	.	1c	2e	2g
2F	.	.	2A	4f
.	.	.	.	4e
=20	=20	=20	=20	=20
2G	2r	1B	2.B	2d
2E	2G	.	.	2e
.	.	.	4c	.
2D	2A	1r	1d	2f
2GG	2B	.	.	[2g
=21	=21	=21	=21	=21
2.C	1c	1r	1e	4g]
.	.	.	.	4e
.	.	.	.	1a
4D	.	.	.	.
1E	1B	2r	[1e	.
.	.	2B	.	2g#
=22	=22	=22	=22	=22
2AA	1A	2c	2e]	[0a
1D	.	2d	2f	.
.	1r	1e	2e	.
2C	.	.	2A	.
=23	=23	=23	=23	=23
4D	1r	1d	1f	1a]
4E	.	.	.	.
4F	.	.	.	.
4G	.	.	.	.
2A	2r	1c	2.e	2r
2AA	[2A	.	.	[2cc
.	.	.	4d	.
=24	=24	=24	=24	=24
2C	2A]	0r	2e	2cc]
2D	2F	.	2f	2a
1BB	1G	.	1d	1b
=25	=25	=25	=25	=25
0AA	0A	2r	2r	2cc
.	.	1c	1e	2a
.	.	.	.	2e
.	.	2A	2c	2f
=26	=26	=26	=26	=26
1GG	1D	1B	1d	0g
1C	1r	[1c	[1e	.
=27	=27	=27	=27	=27
2AA	0r	1c]	2e]	2r
1A	.	.	2A	1cc
.	.	1F	2c	.
2F	.	.	[2d	2a
=28	=28	=28	=28	=28
1G	1r	0r	2d]	1b
.	.	.	2e	.
2.A	2r	.	2r	2.cc
.	[2c	.	[2e	.
8G	.	.	.	8b
8F	.	.	.	8a
=29	=29	=29	=29	=29
2E	2c]	0r	2e]	2g
2F	2A	.	2c	2a
1D	1B	.	1d	1f
=30	=30	=30	=30	=30
2.C	2.c	2r	2.e	2e
.	.	1e	.	1g
4D	8B	.	8d	.
.	8A	.	8c	.
2E	2G	.	2B	.
2AA	2A	2c	2c	2e
=31	=31	=31	=31	=31
1D	2F	1d	2A	1f
.	2F	.	2B	.
2.C	1G	2.e	2.c	2e
.	.	.	.	[2g
4D	.	8d	8B	.
.	.	8c	8A	.
=32	=32	=32	=32	=32
1E	1r	2B	1G	4g]
.	.	.	.	4f
.	.	2c	.	1e
1F	2r	2A	1r	.
.	2A	2A	.	2d
=33	=33	=33	=33	=33
1E	2A	1B	1r	0e
.	2G	.	.	.
2.A	2.c	1r	2r	.
.	.	.	2c	.
4G	4B	.	.	.
=34	=34	=34	=34	=34
2F	2A	2r	2d	2r
2E	2G	2c	2e	2g
1D	1F	2c	2f	2a
.	.	2B	2d	2b
=35	=35	=35	=35	=35
0C	1E	2.e	2.g	2cc
.	.	.	.	4c
.	.	4d	4f	4d
.	1r	2c	4e	4e
.	.	.	4d	4f
.	.	2B	2e	[2g
=36	=36	=36	=36	=36
1D	0r	1A	2.d	2g]
.	.	.	.	2f
.	.	.	4c	.
1GG	.	1G	4B	2e
.	.	.	4A	.
.	.	.	2B	2d
=37	=37	=37	=37	=37
2AA	2r	0r	1A	2.c
2A	2c	.	.	.
.	.	.	.	4d
2A	2c	.	1E	1e
2G	2B	.	.	.
=38	=38	=38	=38	=38
2.c	2.e	1r	0r	2r
.	.	.	.	2g
4B	4d	.	.	.
2A	2c	2r	.	2a
2G	2B	2e	.	2b
=39	=39	=39	=39	=39
1F	1A	2e	1r	2cc
.	.	2d	.	2a
2E	[1G	2.g	2r	2b
4C	.	.	2c	2cc
4D	.	4f	.	.
=40	=40	=40	=40	=40
4E	1G]	2e	2c	0g
4F	.	.	.	.
2G	.	2d	2B	.
4C	1r	1c	1e	.
4D	.	.	.	.
4E	.	.	.	.
4F	.	.	.	.
=41	=41	=41	=41	=41
1G	0r	0B	1d	2r
.	.	.	.	2g
1E	.	.	4G	2g
.	.	.	4A	.
.	.	.	4B	2e
.	.	.	4c	.
=42	=42	=42	=42	=42
2.D	2.F	0r	1d	2.a
4E	4G	.	.	4g
2F	4A	.	2c	2f
.	4B	.	.	.
2C	[2c	.	[2g	2e
=43	=43	=43	=43	=43
1G	2c]	1r	4g]	1d
.	.	.	8f	.
.	.	.	8e	.
.	2B	.	2d	.
2r	2.c	2.A	2e	1c
2F	.	.	[2A	.
.	4B	4B	.	.
=44	=44	=44	=44	=44
2F	2A	4c	2A]	1r
.	.	4d	.	.
2E	2G	1e	2B	.
1A	1F	.	2c	2r
.	.	2d	2A	2a
=45	=45	=45	=45	=45
2AA	[0E	[0e	2.c	2a
2.C	.	.	.	2g
.	.	.	8B	.
.	.	.	8A	.
.	.	.	2G	[1cc
4BB	.	.	.	.
[2AA	.	.	[2A	.
=46	=46	=46	=46	=46
2AA]	1E_	1e_	2A]	2cc]
2GG#	.	.	2B	2b
1AA	1E_	1e_	1c	1a
=47	=47	=47	=47	=47
0E	0E]	0e]	0B	0g#
*-	*-	*-	*-	*-
!!!CDT: 1525/^1526/-1594/2/2
!!!OCY: Italia
!!!AGN: Mass (Canonic)
!!!AST: renaissance, vocal
!!!ASW: Motet 1538 (Jacquet)
!!!PWK: Masses, Book 3
!!!RNB: Cadence finals: A,G,C
!!!YOR: Le Opere Complete, v. 6, p. 136
!!!YOO: Rome, Italy: Fratelli Scalera
!!!END: 1992//
!!!EED: John Miller
!!!YEC: Copyright 2000, John Miller
!!!YEN: United States of America
!!!YEM: Rights to all derivative electronic formats reserved.
!!!YEM: Refer to licensing agreement for further details.
!!!YEM: This file must be accompanied by the licensing agreement.
!!!YEM: A copy of the licensing agreement may be found at http://www.music-cog.ohio-state.edu/HumdrumDatabases/Palestrina/license.txt
!!!EMD: converted to Humdrum by Bret Aarden
